X:9117
T:Lads Are A' Come Back Again,The. BC.40
M:6/8
L:1/8
Q:120
S:Benjamin Cooke MS.circa 1770, F.Kidson Coll.
R:Jig
O:England
A:x
Z:vmp.John Bagnalll
K:D
DED F2 G | A2 d AFD | G2 A B2 G | A2 G FED |!
 DED F2 G | A2 d AFD | G2 AB2 G | AFD D3 :|!
|:d2 e f2 d | e2 a gec | d2 e f2 d | e2 d cBA |!
 d2 e f2 d | e2 a gec | "*"d2 A B2 G| AFD D3 :|]
W: Possibly c in ms.
